app/assets/images/remix_icon/health/hearts-line.svg

<svg viewBox="0 0 24 24" xmlns="http://www.w3.org/2000/svg"><path d="M19.2426 4.75736C20.705 6.2228 21.2547 8.25005 20.8924 10.1368C21.4614 10.2972 21.9987 10.6002 22.4471 11.0453C23.851 12.439 23.851 14.6987 22.4471 16.0924L17 21.5L13.978 18.5L10.9999 21.485L2.52138 12.993C0.417048 10.637 0.495706 7.01901 2.75736 4.75736C5.02157 2.49315 8.64519 2.41687 11.001 4.52853C13.35 2.42 16.98 2.49 19.2426 4.75736ZM12.962 12.4646C12.346 13.0761 12.346 14.0615 12.962 14.673L17 18.6818L21.038 14.673C21.654 14.0615 21.654 13.0761 21.038 12.4646C20.414 11.8451 19.3962 11.8451 18.77 12.4668L16.9979 14.2206L15.591 12.825L15.2278 12.4646C14.6038 11.8451 13.586 11.8451 12.962 12.4646ZM4.17157 6.17157C2.68183 7.66131 2.60704 10.0473 3.97993 11.6232L10.9999 18.6543L12.559 17.092L11.5529 16.0924C10.149 14.6987 10.149 12.439 11.5529 11.0453C12.9568 9.65157 15.233 9.65157 16.6369 11.0453L16.9996 11.4051L17.3631 11.0453C17.7877 10.6238 18.2921 10.3297 18.828 10.1632C19.2436 8.79577 18.9058 7.25122 17.827 6.1701C16.3279 4.66794 13.9076 4.60701 12.337 6.01687L11.0019 7.21524L9.66605 6.01781C8.09098 4.60597 5.67506 4.66808 4.17157 6.17157Z"/></svg>

<svg xmlns="http://www.w3.org/2000/svg" viewBox="0 0 24 24">
    <g>
        <path fill="none" d="M0 0H24V24H0z"/>
        <path d="M19.243 4.757c1.462 1.466 2.012 3.493 1.65 5.38.568.16 1.106.463 1.554.908 1.404 1.394 1.404 3.654 0 5.047L17 21.5l-3.022-3L11 21.485 2.52 12.993C.417 10.637.496 7.019 2.757 4.757c2.265-2.264 5.888-2.34 8.244-.228 2.349-2.109 5.979-2.039 8.242.228zm-6.281 7.708c-.616.611-.616 1.597 0 2.208L17 18.682l4.038-4.009c.616-.611.616-1.597 0-2.208-.624-.62-1.642-.62-2.268.002l-1.772 1.754-1.407-1.396-.363-.36c-.624-.62-1.642-.62-2.266 0zm-8.79-6.293c-1.49 1.49-1.565 3.875-.192 5.451L11 18.654l1.559-1.562-1.006-1c-1.404-1.393-1.404-3.653 0-5.047 1.404-1.393 3.68-1.393 5.084 0l.363.36.363-.36c.425-.421.93-.715 1.465-.882.416-1.367.078-2.912-1.001-3.993-1.5-1.502-3.92-1.563-5.49-.153l-1.335 1.198-1.336-1.197c-1.575-1.412-3.99-1.35-5.494.154z"/>
    </g>
</svg>
